X: 28
T:Jenny Lind's Polka
R:polka
D:Mary Bergin: Feadoga Stain 2
Z:id:hn-polka-53
M:2/4
L:1/8
Q:300
K:D
A/G/|:"D"FA/F/ "Em"GB|"D"Af f/e/f|"Em"Ge e/d/e|"D"Fd d2 A/G/|
"D"FA/F/"Em" GB|"D"Af f/e/f|"Em"ge "A"e/c/A/c/|1 "Em"ed "D"dA/G/:|
K:G
"Em"g2 e2 e/f/g/e/|"G"dB B/A/B|"Am"cA "D"A/G/ A2|"Em"BG "G"G (3d/e/f/|
"Em"~g>f e/f/g/e/|"G"dB "Em"B/A/ B2|"Am"cA A/c/B/A/|1 "Em"G2 "G"G (3d/e/
f/:|2 AG G||

